X: 47
T: 43. MUDDY WATER
B: Sam Bayard, "Hill Country Tunes" 1944 #43
S: Played by Mrs Sarah Armstrong, (near) Derry, PA, Nov. 18, 1943.
R: hornpipe, reel
M: 4/4
L: 1/8
Z: 2010 John Chambers <jc:trillian.mit.edu>
K: D
HAG |\
F2 D2 DE"a."FD | E2 "c."A,2 A,3 E | F3 F G2 FG | A2d2 dB AG |
F2 D2 DEFD | E2 "c."A,2 A,3 E | F2 EF G2 FE | D2 F2 D2 :: A2 |
d3 e f2 ed | c2 ed cB "b."A2 | d3  e fe de | f2 a2 a3 A |
d3 e f2 ed | c2 ed cB "b."A2 | A2 Bc dB AG | F2 D2 D2 :|
P: Var:
"a."FG || "b."AA | "c"[E2A,2][E2A,2] |]

%%sep 2 1 500
%%sep 1 1 500

